X:1
T:Neun Doerfer
C:traditionell
R:Zwiefach
%%textfont Helvetica-Narrow 10pt
%%begintext align
B:"Schule fuer boehmischen Bock", Band I, R.Lughofer, Eigenverlag, Kremsmuenster 1998
N:dort ganz in F, zweistimmig, Seite 50
%%endtext 
F:http://simonwascher.info/
Z:abc transcription Simon Wascher
M:4/4
L:1/4
K:G
d>dd | dBG | FA | dc |
FA | d>dd | dcF | GB |
ed | GB | d>dd | dBG |
FAd | cF | Ad>dd | dcF |
(G3 | G2)z :|
%%wordsfont Times-Italic 11pt
W:aus Simon Waschers TradArchiv
